packages/foundations/assets/icons/functional/images/devices/camera_28_filled.svg

<svg width="28" height="28" viewBox="0 0 28 28" fill="none" xmlns="http://www.w3.org/2000/svg">
<g clip-path="url(#clip0_2204_2736)">
<path fill-rule="evenodd" clip-rule="evenodd" d="M16.7751 5.25105C17.4713 5.25105 18.139 5.52761 18.6313 6.0199L20.4881 7.87605L23.6276 7.87959C25.0246 7.88099 26.25 9.20579 26.25 10.5011V20.1239C26.25 21.5737 25.0747 22.7489 23.625 22.7489H4.375C2.92525 22.7489 1.75 21.5737 1.75 20.1239V10.5046C1.75 9.05587 2.92364 7.88105 4.37235 7.87959L7.511 7.87605L9.36872 6.0199C9.81998 5.56864 10.554 5.25105 11.2262 5.25105H16.7751ZM14 10.5011C11.5838 10.5011 9.625 12.4598 9.625 14.8761C9.625 17.2923 11.5838 19.2511 14 19.2511C16.4162 19.2511 18.375 17.2923 18.375 14.8761C18.375 12.4598 16.4162 10.5011 14 10.5011ZM14 12.2511C15.4497 12.2511 16.625 13.4263 16.625 14.8761C16.625 16.3258 15.4497 17.5011 14 17.5011C12.5503 17.5011 11.375 16.3258 11.375 14.8761C11.375 13.4263 12.5503 12.2511 14 12.2511ZM7 11.3761H6.125C5.64175 11.3761 5.25 11.7678 5.25 12.2511C5.25 12.7343 5.64175 13.1261 6.125 13.1261H7C7.48325 13.1261 7.875 12.7343 7.875 12.2511C7.875 11.7678 7.48325 11.3761 7 11.3761Z" fill="#1A1C1F"/>
</g>
<defs>
<clipPath id="clip0_2204_2736">
<rect width="28" height="28" fill="white"/>
</clipPath>
</defs>
</svg>

<svg xmlns="http://www.w3.org/2000/svg" width="28" height="28" fill="none"><g clip-path="url(#a)"><path fill="#1A1C1F" fill-rule="evenodd" d="M16.775 5.251c.696 0 1.364.277 1.856.769l1.857 1.856 3.14.004c1.397.001 2.622 1.326 2.622 2.621v9.623a2.625 2.625 0 0 1-2.625 2.625H4.375a2.625 2.625 0 0 1-2.625-2.625v-9.62A2.625 2.625 0 0 1 4.372 7.88l3.139-.004L9.369 6.02a2.78 2.78 0 0 1 1.857-.769zM14 10.501a4.375 4.375 0 1 0 0 8.75 4.375 4.375 0 0 0 0-8.75m0 1.75a2.625 2.625 0 1 1 0 5.25 2.625 2.625 0 0 1 0-5.25m-7-.875h-.875a.875.875 0 1 0 0 1.75H7a.875.875 0 0 0 0-1.75" clip-rule="evenodd"/></g><defs><clipPath id="a"><path fill="#fff" d="M0 0h28v28H0z"/></clipPath></defs></svg>
